X:1
T:Sailors' Alphabet
M:3/4
L:1/4
K:C
 C G G| G G G| F G A| G2 G| F E F| D E F| G G F| E2 z/2 C/2| C G G|\
 G G G| F G A| G2 z/2 G/2| F E F| D E F3.99999962500005/11.9999985000002 F3.99999962500005/11.9999985000002 F3.99999962500005/11.9999985000002|\
 G E D| C2||
